X: 3338
T: Belles Of Tipperary, The
R: reel
M: 4/4
K: Dmajor
|:D ~A3 DEFA|defe dBBA|B2 AF ABde|fede fe e2|
D ~A3 DEFA|defe dBBA|B2 AF ABdB|1 AFEG FDDA:|2 AFEG FDD f|
|:~a3b afdf|gfed (3Bcd ef|g2 gf gbag|faaf egfe|
dB~B2 AF~F2|D ~F3 ABdf|1 afec dBAF|ABde fdd f:|2 afec dBAF|EFGE FDDA||
|:~a3b afdf|gfed (3Bcd ef|gdBd gbag|faaf egfe|
dB~B2 AF~F2|D ~F3 ABdf|afec dBAF|EFGE FDDA||

